dist/img/icons/white_star.svg

<svg width="30" height="28" viewBox="0 0 30 28" fill="none" xmlns="http://www.w3.org/2000/svg">
<mask id="mask0_1_6800" style="mask-type:luminance" maskUnits="userSpaceOnUse" x="0" y="0" width="30" height="28">
<path d="M29.5583 0H0V28H29.5583V0Z" fill="white"/>
</mask>
<g mask="url(#mask0_1_6800)">
<path d="M15.142 7.49088C15.1654 7.68663 15.1953 7.88036 15.2357 8.07207C15.2762 8.2658 15.3231 8.45549 15.3806 8.64518C15.4381 8.83488 15.502 9.02054 15.5766 9.20418C15.6511 9.38782 15.7321 9.56742 15.8216 9.74501C15.911 9.92259 16.009 10.0961 16.1134 10.2657C16.2178 10.4352 16.3307 10.6007 16.45 10.7601C16.5693 10.9195 16.6971 11.0749 16.8313 11.2262C16.9656 11.3756 17.1062 11.5209 17.251 11.6601C17.3959 11.7993 17.5493 11.9325 17.709 12.0577C17.8667 12.1848 18.0307 12.3039 18.2011 12.4189C18.3694 12.5319 18.5441 12.6388 18.7231 12.7377C18.902 12.8366 19.0852 12.9294 19.2727 13.0142C19.4602 13.099 19.6498 13.1756 19.8436 13.2463C20.0375 13.3169 20.2335 13.3774 20.4337 13.4319C20.634 13.4864 20.8342 13.5308 21.0387 13.5691C21.2432 13.6075 21.4478 13.6357 21.6523 13.6579C23.6505 13.8658 26.2303 13.999 29.56 13.999C26.2303 13.999 23.6505 14.1322 21.6523 14.34C21.4456 14.3622 21.2411 14.3905 21.0387 14.4288C20.8342 14.4672 20.634 14.5116 20.4337 14.5661C20.2335 14.6205 20.0375 14.6811 19.8436 14.7517C19.6498 14.8224 19.4602 14.899 19.2727 14.9838C19.0852 15.0685 18.902 15.1614 18.7231 15.2602C18.5441 15.3591 18.3694 15.4661 18.2011 15.5791C18.0328 15.6921 17.8688 15.8132 17.709 15.9403C17.5514 16.0674 17.398 16.2007 17.251 16.3379C17.104 16.4771 16.9634 16.6204 16.8313 16.7717C16.6993 16.9231 16.5715 17.0765 16.45 17.2379C16.3307 17.3973 16.2178 17.5628 16.1134 17.7323C16.009 17.9018 15.911 18.0754 15.8216 18.253C15.7321 18.4306 15.6511 18.6102 15.5766 18.7938C15.502 18.9774 15.4381 19.1631 15.3806 19.3528C15.3231 19.5425 15.2762 19.7322 15.2357 19.9259C15.1953 20.1196 15.1654 20.3134 15.142 20.5071C14.9226 22.4 14.782 24.8438 14.782 27.998C14.782 24.8438 14.6414 22.4 14.4219 20.5071C14.3985 20.3113 14.3687 20.1176 14.3282 19.9259C14.2877 19.7322 14.2409 19.5425 14.1834 19.3528C14.1258 19.1631 14.0619 18.9774 13.9874 18.7938C13.9128 18.6102 13.8318 18.4306 13.7424 18.253C13.6529 18.0754 13.5549 17.9018 13.4505 17.7323C13.3461 17.5628 13.2332 17.3973 13.1139 17.2379C12.9946 17.0785 12.8668 16.9231 12.7326 16.7717C12.5984 16.6224 12.4578 16.4771 12.3129 16.3379C12.1659 16.1986 12.0147 16.0654 11.8549 15.9403C11.6973 15.8132 11.5332 15.6941 11.3628 15.5791C11.1945 15.4661 11.0198 15.3591 10.8409 15.2602C10.6619 15.1614 10.4787 15.0685 10.2913 14.9838C10.1038 14.899 9.91418 14.8224 9.72032 14.7517C9.52646 14.6811 9.33047 14.6205 9.13022 14.5661C8.92997 14.5116 8.72972 14.4672 8.52521 14.4288C8.3207 14.3905 8.11619 14.3622 7.91167 14.34C5.91343 14.1322 3.33361 13.999 0.00390625 13.999C3.33361 13.999 5.91343 13.8658 7.91167 13.6579C8.11832 13.6357 8.32283 13.6075 8.52521 13.5691C8.72972 13.5308 8.92997 13.4864 9.13022 13.4319C9.33047 13.3774 9.52646 13.3169 9.72032 13.2463C9.91418 13.1756 10.1038 13.099 10.2913 13.0142C10.4787 12.9294 10.6619 12.8366 10.8409 12.7377C11.0198 12.6388 11.1945 12.5319 11.3628 12.4189C11.5311 12.3059 11.6951 12.1848 11.8549 12.0577C12.0126 11.9305 12.1659 11.7973 12.3129 11.6601C12.4599 11.5209 12.6005 11.3776 12.7326 11.2262C12.8668 11.0769 12.9925 10.9215 13.1139 10.7601C13.2354 10.5986 13.3461 10.4352 13.4505 10.2657C13.5549 10.0961 13.6529 9.92259 13.7424 9.74501C13.8318 9.56742 13.9128 9.38782 13.9874 9.20418C14.0619 9.02054 14.1258 8.83488 14.1834 8.64518C14.2409 8.45549 14.2877 8.2658 14.3282 8.07207C14.3687 7.87834 14.3985 7.68461 14.4219 7.49088C14.6414 5.59798 14.782 3.15416 14.782 0C14.7798 3.15416 14.9226 5.59798 15.142 7.49088Z" fill="#F7F7F6"/>
</g>
</svg>

<svg width="30" height="28" viewBox="0 0 30 28" fill="none" xmlns="http://www.w3.org/2000/svg"><mask id="mask0_1_6800" style="mask-type:luminance" maskUnits="userSpaceOnUse" x="0" y="0" width="30" height="28"><path d="M29.558 0H0v28h29.558V0z" fill="#fff"/></mask><g mask="url(#mask0_1_6800)"><path d="M15.142 7.49a6.632 6.632 0 00.68 2.255 6.994 6.994 0 00.628 1.015 7.258 7.258 0 001.259 1.298 7.196 7.196 0 001.564.956 7.398 7.398 0 001.766.555c.204.038.409.067.613.089 1.998.208 4.578.341 7.908.341-3.33 0-5.91.133-7.908.341a7.745 7.745 0 00-2.38.644 7.667 7.667 0 00-1.07.595 7.579 7.579 0 00-.951.759c-.147.14-.288.282-.42.434a6.628 6.628 0 00-1.01 1.481c-.089.178-.17.357-.244.54a6.446 6.446 0 00-.341 1.133c-.04.194-.07.387-.094.581-.22 1.893-.36 4.337-.36 7.491 0-3.154-.14-5.598-.36-7.49a6.592 6.592 0 00-.435-1.714 7.007 7.007 0 00-.873-1.556 7.287 7.287 0 00-.801-.9 7.171 7.171 0 00-1.472-1.078 7.709 7.709 0 00-2.316-.831 8.042 8.042 0 00-.613-.089c-1.999-.208-4.578-.341-7.908-.341 3.33 0 5.91-.133 7.908-.341a7.7 7.7 0 002.929-.92 7.104 7.104 0 001.014-.68 8.42 8.42 0 00.458-.398 6.61 6.61 0 00.42-.434 6.884 6.884 0 001.45-2.58 6.67 6.67 0 00.239-1.155c.22-1.893.36-4.337.36-7.491-.002 3.154.14 5.598.36 7.49z" fill="#F7F7F6"/></g></svg>
